static/images/platforms/flutter.svg

<svg xmlns="http://www.w3.org/2000/svg" viewBox="0 0 1999 2474.2"><linearGradient id="a" x1="-2115.003" x2="-2115.003" y1="1930.741" y2="1929.741" gradientTransform="matrix(298.43165 -306.19972 -41.66072 -42.74211 712731.377 -563282.566)" gradientUnits="userSpaceOnUse"><stop offset=".2" stop-opacity=".15"/><stop offset=".85" stop-color="#616161" stop-opacity=".01"/></linearGradient><linearGradient id="b" x1="-2115.269" x2="-2114.269" y1="1946.356" y2="1946.356" gradientTransform="matrix(443.47757 0 0 -306.63402 939036.36 598625.856)" gradientUnits="userSpaceOnUse"><stop offset=".2" stop-opacity=".55"/><stop offset=".85" stop-color="#616161" stop-opacity=".01"/></linearGradient><path fill="#42a5f5" fill-opacity=".8" d="m514.28 1500.66-298.899-306.668L1185.9 198.325h597.72m0 918.799H1185.9L962 1346.844l298.9 306.668"/><path fill="#0d47a1" d="m962 1960.1 223.9 229.72h597.72l-522.72-536.308"/><path fill="#42a5f5" d="m663.807 1653.673 298.428-306.266 298.43 306.185-298.43 306.267Z"/><path fill="url(#a)" d="m962.235 1959.859 298.43-306.186 41.657 42.74-298.428 306.186Z"/><path fill="url(#b)" d="m962 1960.1 443.485-157.198-144.585-149.47"/></svg>

<?xml version="1.0" encoding="utf-8"?>
<svg enable-background="new 0 0 1999 2474.2" viewBox="0 0 1999 2474.2" xmlns="http://www.w3.org/2000/svg">
  <linearGradient id="a" gradientTransform="matrix(298.431654, -306.199715, -41.660722, -42.742111, 712731.37725, -563282.566398)" gradientUnits="userSpaceOnUse" x1="-2115.0029" x2="-2115.0029" y1="1930.7407" y2="1929.7407">
    <stop offset="0.2" stop-opacity=".15"/>
    <stop offset="0.85" stop-color="#616161" stop-opacity=".01"/>
  </linearGradient>
  <linearGradient id="b" gradientTransform="matrix(443.477569, 0, 0, -306.634017, 939036.360942, 598625.856091)" gradientUnits="userSpaceOnUse" x1="-2115.2688" x2="-2114.2688" y1="1946.3563" y2="1946.3563">
    <stop offset="0.2" stop-opacity=".55"/>
    <stop offset="0.85" stop-color="#616161" stop-opacity=".01"/>
  </linearGradient>
  <path d="M 514.28 1500.66 L 215.381 1193.992 L 1185.9 198.325 L 1783.62 198.325 M 1783.62 1117.124 L 1185.9 1117.124 L 962 1346.844 L 1260.9 1653.512" fill-opacity=".8" fill="#42a5f5" style=""/>
  <path d="M 962 1960.1 L 1185.9 2189.82 L 1783.62 2189.82 L 1260.9 1653.512" fill="#0d47a1" style=""/>
  <path d="M 663.807 1653.673 L 962.235 1347.407 L 1260.665 1653.592 L 962.235 1959.859 Z" fill="#42a5f5" style=""/>
  <path d="M 962.235 1959.859 L 1260.665 1653.673 L 1302.322 1696.413 L 1003.894 2002.599 Z" fill="url(#a)" style=""/>
  <path d="M 962 1960.1 L 1405.485 1802.902 L 1260.9 1653.432" fill="url(#b)" style=""/>
</svg>
